src/assets/filled/FilterSquare.svg

<?xml version="1.0" encoding="UTF-8"?>
<svg width="24" height="24" viewBox="0 0 24 24" xmlns="http://www.w3.org/2000/svg">
 <path d="m20.95 4.13c-0.29-0.42-0.66-0.79-1.08-1.08-0.95-0.69-2.19-1.05-3.68-1.05h-8.38c-0.2 0-0.4 0.01-0.59 0.03-3.28 0.21-5.22 2.34-5.22 5.78v8.38c0 1.49 0.36 2.73 1.05 3.68 0.29 0.42 0.66 0.79 1.08 1.08 0.82 0.6 1.86 0.95 3.09 1.03 0.19 0.01 0.39 0.02 0.59 0.02h8.38c3.64 0 5.81-2.17 5.81-5.81v-8.38c0-1.49-0.36-2.73-1.05-3.68zm-12.49 6.55-0.49-0.51c-0.26-0.26-0.47-0.73-0.47-1.05v-1.2c0-0.63 0.47-1.1 1.05-1.1h2.14c0.41 0 0.66 0.45 0.44 0.8l-1.85 2.98c-0.18 0.29-0.59 0.33-0.82 0.08zm8.04-1.66c0 0.42-0.26 0.94-0.52 1.2l-2.25 1.99c-0.31 0.26-0.52 0.78-0.52 1.2v2.25c0 0.31-0.21 0.73-0.47 0.89l-0.74 0.47c-0.68 0.42-1.62-0.05-1.62-0.89v-2.77c0-0.37-0.21-0.84-0.42-1.1l-0.24-0.26c-0.16-0.17-0.19-0.43-0.07-0.64l2.68-4.3c0.1-0.15 0.26-0.25 0.44-0.25h2.68c0.58 0 1.05 0.47 1.05 1.05v1.16z"/>
</svg>

<svg width="24" height="24" viewBox="0 0 24 24"  xmlns="http://www.w3.org/2000/svg">
<path d="M20.95 4.13C20.66 3.71 20.29 3.34 19.87 3.05C18.92 2.36 17.68 2 16.19 2H7.81C7.61 2 7.41 2.01 7.22 2.03C3.94 2.24 2 4.37 2 7.81V16.19C2 17.68 2.36 18.92 3.05 19.87C3.34 20.29 3.71 20.66 4.13 20.95C4.95 21.55 5.99 21.9 7.22 21.98C7.41 21.99 7.61 22 7.81 22H16.19C19.83 22 22 19.83 22 16.19V7.81C22 6.32 21.64 5.08 20.95 4.13ZM8.46 10.68L7.97 10.17C7.71 9.91 7.5 9.44 7.5 9.12V7.92C7.5 7.29 7.97 6.82 8.55 6.82H10.69C11.1 6.82 11.35 7.27 11.13 7.62L9.28 10.6C9.1 10.89 8.69 10.93 8.46 10.68ZM16.5 9.02C16.5 9.44 16.24 9.96 15.98 10.22L13.73 12.21C13.42 12.47 13.21 12.99 13.21 13.41V15.66C13.21 15.97 13 16.39 12.74 16.55L12 17.02C11.32 17.44 10.38 16.97 10.38 16.13V13.36C10.38 12.99 10.17 12.52 9.96 12.26L9.72 12C9.56 11.83 9.53 11.57 9.65 11.36L12.33 7.06C12.43 6.91 12.59 6.81 12.77 6.81H15.45C16.03 6.81 16.5 7.28 16.5 7.86V9.02Z" />
</svg>
